assets/images/youtube_f.svg

<svg width="20" height="14" viewBox="0 0 20 14" fill="none" xmlns="http://www.w3.org/2000/svg">
<path d="M19.2812 2.34375C19.0625 1.5 18.4062 0.84375 17.5625 0.625C16.0625 0.21875 10 0.21875 10 0.21875C10 0.21875 3.9375 0.21875 2.4375 0.625C1.59375 0.84375 0.9375 1.5 0.71875 2.34375C0.3125 3.875 0.3125 7 0.3125 7C0.3125 7 0.3125 10.1562 0.71875 11.6562C0.9375 12.5 1.59375 13.1562 2.4375 13.375C3.9375 13.7812 10 13.7812 10 13.7812C10 13.7812 16.0625 13.7812 17.5625 13.375C18.4062 13.1562 19.0625 12.5 19.2812 11.6562C19.6875 10.1562 19.6875 7 19.6875 7C19.6875 7 19.6875 3.875 19.2812 2.34375ZM8.0625 9.90625V4.09375L13.0938 7L8.0625 9.90625Z" fill="#FF5C00"/>
</svg>

<svg xmlns="http://www.w3.org/2000/svg" width="20" height="14" fill="none"><path fill="#FF5C00" d="M19.281 2.344A2.394 2.394 0 0 0 17.563.625C16.063.219 10 .219 10 .219s-6.063 0-7.563.406C1.595.844.938 1.5.72 2.344.313 3.875.313 7 .313 7s0 3.156.406 4.656c.219.844.875 1.5 1.719 1.719 1.5.406 7.562.406 7.562.406s6.063 0 7.563-.406a2.394 2.394 0 0 0 1.718-1.719c.407-1.5.407-4.656.407-4.656s0-3.125-.407-4.656ZM8.063 9.906V4.094L13.093 7l-5.03 2.906Z"/></svg>
